src/Assets/Icons/General/PrimaryNavbarComponent/aiSegmantationIcon_selected.svg

<svg width="50" height="41" viewBox="0 0 50 41" fill="none" xmlns="http://www.w3.org/2000/svg">
<path d="M39.3477 14.1072C36.8153 5.93755 29.1615 0 20.1223 0C9.00645 0 0 8.96117 0 20.0152C0 31.0691 9.00645 40.0362 20.1223 40.0362H36.2403C43.5396 40.0362 49.4565 34.1491 49.4565 26.8865C49.4565 20.691 45.1484 15.4916 39.3477 14.1072ZM20.3159 33.6155H18.9961C19.0199 32.7736 19.0676 27.8825 15.1617 23.9666C11.0949 19.8877 5.91393 20.0507 5.10057 20.0893C5.12739 19.9084 5.14526 19.7009 5.14526 19.4668C5.14526 19.2563 5.12739 19.0666 5.10356 18.9006C5.94372 18.9361 11.08 19.0636 15.1647 15.0232C19.3625 10.8702 19.151 5.57294 19.1063 4.76368C19.2731 4.77553 19.4549 4.78443 19.6456 4.78443C19.8482 4.78443 20.0358 4.77553 20.2116 4.76368C20.1669 5.5759 19.9524 10.8732 24.1533 15.0232C28.217 19.0399 33.3206 18.9243 34.1637 18.8917C34.1697 19.0784 34.1697 19.277 34.1637 19.4845C34.1578 19.7009 34.1429 19.9084 34.125 20.1011C33.3087 20.0655 28.1872 19.9262 24.1533 23.9636C20.2414 27.8795 20.2951 32.7766 20.3189 33.6125L20.3159 33.6155ZM41.2217 29.4654C40.8791 29.4506 39.1898 29.2728 37.5006 30.9683C35.859 32.6106 36.1092 34.6649 36.1211 35.0147H34.9592C34.9681 34.6619 35.3703 32.6106 33.7317 30.9683C32.0246 29.2579 30.3651 29.4506 30.0255 29.4654C30.0374 29.3913 30.0344 28.7481 30.0255 28.6799C30.377 28.6947 32.0186 28.9141 33.7317 27.2185C35.4925 25.4754 34.9771 23.4656 34.9592 23.1277C35.0307 23.1336 36.0466 23.1336 36.1211 23.1277C36.1003 23.4686 35.7398 25.4784 37.5006 27.2185C39.2047 28.9022 40.8701 28.6947 41.2217 28.6799C41.2217 28.757 41.2306 29.3854 41.2217 29.4654Z" fill="#0000FF"/>
</svg>

<svg xmlns="http://www.w3.org/2000/svg" width="50" height="41" fill="none"><path fill="#00F" d="M39.348 14.107C36.815 5.937 29.162 0 20.122 0 9.006 0 0 8.961 0 20.015s9.006 20.021 20.122 20.021H36.24c7.3 0 13.216-5.887 13.216-13.15 0-6.195-4.308-11.394-10.108-12.779M20.316 33.615h-1.32c.024-.841.072-5.733-3.834-9.648-4.067-4.08-9.248-3.916-10.061-3.878.026-.18.044-.388.044-.622 0-.21-.018-.4-.041-.566.84.035 5.976.163 10.06-3.878 4.199-4.153 3.987-9.45 3.942-10.26a7.6 7.6 0 0 0 1.106 0c-.045.813-.26 6.11 3.941 10.26 4.064 4.017 9.168 3.901 10.01 3.869a10 10 0 0 1-.038 1.21c-.816-.037-5.938-.176-9.972 3.862-3.912 3.916-3.858 8.813-3.834 9.648zm20.906-4.15c-.343-.014-2.032-.192-3.721 1.503-1.642 1.643-1.392 3.697-1.38 4.047H34.96c.01-.353.411-2.404-1.227-4.047-1.707-1.71-3.367-1.517-3.706-1.503a10 10 0 0 0 0-.785c.351.015 1.993.234 3.706-1.462 1.76-1.743 1.245-3.752 1.227-4.09.072.006 1.088.006 1.162 0-.02.34-.381 2.35 1.38 4.09 1.704 1.684 3.37 1.477 3.72 1.462 0 .077.01.705 0 .785"/></svg>
